src/24/actions/mail-mark-unread.svg

<svg xmlns="http://www.w3.org/2000/svg" viewBox="0 0 24 24">
  <defs id="defs3051">
    <style type="text/css" id="current-color-scheme">
      .ColorScheme-Text {
        color:#5d656b;
      }
      </style>
  </defs>
 <path style="fill:currentColor;fill-opacity:1;stroke:none" 
     d="M 2 4 L 2 5 L 2 19 L 2 19.414062 L 2 20 L 3 20 L 22 20 L 22 19.414062 L 22 19 L 22 18 L 22 4 L 21.951172 4 L 21 4 L 3.4628906 4 L 3 4 L 2 4 z M 3 5 L 3.0488281 5 L 9.0234375 10.976562 L 3 17 L 3 5 z M 4.4628906 5 L 19.537109 5 L 12 12.537109 L 4.4628906 5 z M 20.951172 5 L 21 5 L 21 17 L 14.976562 10.976562 L 20.951172 5 z M 9.7304688 11.683594 L 12 13.951172 L 14.269531 11.683594 L 20.537109 17.951172 L 21 18.414062 L 21 19 L 3 19 L 3 18.414062 L 3.4628906 17.951172 L 9.7304688 11.683594 z "
     class="ColorScheme-Text"
     />
</svg>

<svg xmlns="http://www.w3.org/2000/svg" viewBox="0 0 24 24"><path d="M2 4v16h20V4H2zm1 1h.049l5.974 5.977L3 17V5zm1.463 0h15.074L12 12.537 4.463 5zM20.95 5H21v12l-6.023-6.023L20.95 5zm-11.22 6.684L12 13.95l2.27-2.267 6.267 6.267.463.463V19H3v-.586l.463-.463 6.267-6.267z" fill="currentColor" color="#5d656b"/></svg>
